X: 3
T: Captain Dunne's March
Z: Thady Quill
S: https://thesession.org/tunes/4764#setting29645
R: barndance
M: 4/4
L: 1/8
K: Gmaj
D2 |: G2 G>G GB dB | c2 A2 A3 c | B/c/d ef ge dB | d2 d>e dc BA |
G2 G>G GB dB | c2 A2 A2 dc | B/c/d BG A/B/c AF | G2 G>F G2 :|
|: Bd |g2 g>g ge dB | c2 A2Ae fg | a2 ab ag fe | de fe dc BA |
G2 G>G GB dB | c2 A2 A2 dc | B/c/d BG A/B/c AF | GG/G/ GG G2  :|
